src/images/CH_mobile_logo.svg

<svg xmlns="http://www.w3.org/2000/svg" width="400" height="219.375" viewBox="0 0 400 219.375"><path d="M195.565 6.528a5361.34 5361.34 0 01-9.275 8.283 930.614 930.614 0 00-5.276 4.717c-.191.181-1.576 1.426-3.078 2.767-6.311 5.634-9.902 8.842-12.33 11.015l-2.578 2.309v54.343h73.944V35.721l-.713-.691c-.392-.38-1.503-1.392-2.469-2.249a6219.598 6219.598 0 01-13.241-11.806 3070.482 3070.482 0 00-12.441-11.124c-4.779-4.254-7.409-6.61-7.74-6.934-.159-.156-.327-.284-.373-.284-.046 0-2.04 1.753-4.43 3.895m5.954 13.262a59.312 59.312 0 011.685 1.481c.648.629 2.259 2.079 5.134 4.62a839.864 839.864 0 013.73 3.313c1.039.937 5.434 4.875 6.332 5.674a1783.712 1783.712 0 004.16 3.73l2.563 2.294v37.211h-50.246V40.848l3.894-3.473a583.494 583.494 0 004.005-3.589c.06-.065 1.047-.948 2.194-1.962 1.146-1.015 2.134-1.901 2.194-1.969.06-.068.949-.864 1.975-1.769a207.962 207.962 0 001.975-1.756c.152-.152 1.966-1.777 4.165-3.73a468.974 468.974 0 003.12-2.797c1.552-1.41 1.485-1.41 3.12-.013m-4.75 24.09c-11.412 3.585-9.342 20.39 2.588 21.008 12.918.668 15.878-17.117 3.511-21.095-1.456-.469-4.468-.426-6.099.087M88.097 118.284c-11.499 1.172-18.835 9.111-20.155 21.815-.645 6.208 2.847 14.273 8.088 18.677 9.693 8.146 26.07 6.264 32.926-3.784.877-1.284 1.268-.886-3.751-3.816-4.344-2.536-4.031-2.454-4.846-1.276-5.101 7.372-18.655 4.956-21.658-3.861-3.826-11.233 5.714-21.221 16.636-17.419 2.169.755 5.596 3.432 5.596 4.371 0 .337 7.955-3.987 8.752-4.756.145-.14-1.697-2.465-2.908-3.67-3.703-3.684-8.241-5.777-13.635-6.289-2.632-.249-2.514-.249-5.045.008m26.659 22.691v22.053h27.427v-9.43l-8.722-.057-8.722-.058v-7.899l7.735-.057 7.734-.058v-9.43H124.63v-7.455l8.612-.057 8.612-.057v-9.435l-13.549-.057-13.549-.056v22.053m33.352.001v22.052h9.873v-11.726c0-6.449.082-11.776.181-11.838.1-.061.667.577 1.262 1.418.594.84 2.364 3.333 3.933 5.539 3.32 4.667 2.973 4.179 7.936 11.176l3.851 5.431h7.632v-44.111l-4.992.059-4.992.059-.11 11.738c-.072 7.713-.185 11.703-.329 11.634-.12-.058-1.445-1.835-2.943-3.949l-3.423-4.832c-.672-.948-3.237-4.545-8.176-11.465l-2.311-3.236h-7.392v22.051m39.154-21.771c-.059.154-.081 2.302-.048 4.772l.06 4.493 5.595.109 5.595.11.056 17.169.056 17.17h10.091v-34.449h11.19v-9.654h-16.243c-12.976 0-16.266.056-16.352.28m37.203 21.75v22.073h9.868l.058-7.186.058-7.186 2.429-.062 2.43-.061 2.324 4.011a477.226 477.226 0 013.056 5.336 271.23 271.23 0 001.829 3.235l1.097 1.91 5.344.002c4.314.001 5.323-.054 5.234-.286-.06-.158-1.78-3.145-3.822-6.638-2.041-3.492-3.78-6.498-3.864-6.679a18.123 18.123 0 00-.69-1.207c-.733-1.196-.716-1.257.595-2.137 10.585-7.101 8.293-22.385-3.967-26.455l-1.683-.559-10.148-.092-10.148-.093v22.074m49.964-21.649c-.296.989-3.712 10.97-3.887 11.358-.109.241-.293.784-.409 1.207-.116.422-1.063 3.236-2.104 6.253a1880.11 1880.11 0 00-3.301 9.654 3710.97 3710.97 0 01-2.981 8.777 450.243 450.243 0 00-1.864 5.54l-.29.933h10.87l.506-1.591c.279-.875.773-2.38 1.099-3.346l.593-1.755h16.575l.871 2.742c.479 1.509.975 3.015 1.102 3.347l.232.603h5.349c3.48 0 5.349-.078 5.349-.223 0-.246-.478-1.678-4.392-13.162a7415.41 7415.41 0 01-3.621-10.641 8320.034 8320.034 0 00-6.167-18.102l-.641-1.865-6.386-.059c-5.942-.054-6.395-.031-6.503.33m31.879 21.67v22.052h25.672v-9.429l-7.844-.058-7.844-.058-.056-17.279-.057-17.279h-9.871v22.051m-61.985-12.007c3.656 1.995 3.828 7.742.302 10.077l-.928.614h-9.248l-.059-5.372c-.033-2.954-.011-5.497.048-5.65.245-.639 8.62-.359 9.885.331m37.279 3.397c.229.753.686 2.209 1.016 3.235.33 1.025 1.02 3.198 1.534 4.827a1336.94 1336.94 0 001.427 4.498c.271.845.448 1.61.395 1.7-.146.248-9.896.203-10.05-.045-.128-.207.003-.686 1.204-4.398.332-1.026 1.168-3.642 1.857-5.814 1.697-5.346 1.708-5.376 1.97-5.374.126.001.417.618.647 1.371m-132.178 40.298c-22.492 3.997-26.183 34.652-5.266 43.739 17.066 7.415 35.657-7.847 31.606-25.948-2.737-12.231-14.171-19.954-26.34-17.791m42.348-.006c-7.672 1.547-12.096 7.001-11.545 14.235.5 6.572 4.105 9.727 14.617 12.794 1.75.511 3.329 1.006 3.51 1.101.181.094.811.399 1.4.677 3.208 1.516 3.469 4.798.508 6.381-1.62.866-6.572.735-8.515-.225-1.659-.819-3.605-2.716-4.267-4.159-.522-1.136-.383-1.137-2.327.012a148.93 148.93 0 01-5.01 2.84c-1.991 1.08-1.977 1.045-1.113 2.744 6.376 12.532 28.865 12.352 32.752-.263 2.468-8.006-1.569-13.976-11.563-17.103-8.303-2.597-9.983-3.642-9.983-6.208 0-5.051 9.177-4.39 11.954.861.239.452.497.797.572.766.076-.031 1.932-1.093 4.123-2.361 4.536-2.622 4.457-2.503 3.04-4.563-4.227-6.144-11.029-8.966-18.153-7.529M90.4 195.278v22.166h10.089l.057-8.832.057-8.831 6.787-.059c5.284-.045 6.826.004 6.964.22.096.153.177 4.153.179 8.89l.003 8.612h10.094v-22.028c0-19.885-.034-22.041-.347-22.162-.191-.073-2.462-.133-5.047-.133h-4.7v16.895h-14.037l-.058-8.392-.057-8.393-4.992-.059-4.992-.059v22.165m122.436-17.33v4.828h5.572c4.878 0 5.588.043 5.705.347.073.191.133 7.991.133 17.334v16.987h9.874v-16.987c0-9.343.06-17.143.133-17.334.116-.304.826-.347 5.705-.347h5.571v-9.655h-32.693v4.827m37.301 17.333v22.163h27.647v-9.655H260.22l.06-4.004.06-4.004 7.844-.058 7.845-.058v-9.204l-7.845-.058-7.844-.057-.06-3.785-.06-3.785h17.353l-.059-4.773-.059-4.772-13.659-.057-13.659-.056v22.163m33.722-22.018c-.083.083-.151 10.058-.151 22.166v22.015h25.9l-.059-4.773-.059-4.772-7.843-.058-7.843-.057-.056-17.277-.056-17.276-4.842-.059c-2.662-.032-4.909.009-4.991.091m-126.948 9.286c12.082 3.348 12.672 20.857.851 25.258-3.702 1.378-9.293.537-12.384-1.863-11.382-8.838-2.314-27.232 11.533-23.395" fill="#fafafa" fill-rule="evenodd"/></svg>

<svg id="svg" version="1.1" xmlns="http://www.w3.org/2000/svg" xmlns:xlink="http://www.w3.org/1999/xlink" width="400"
     height="219.375" viewBox="0, 0, 400,219.375">
  <g id="svgg">
    <path id="path0"
          d="M195.565 6.528 C 193.174 8.670,189.000 12.397,186.290 14.811 C 183.579 17.224,181.205 19.347,181.014 19.528 C 180.823 19.709,179.438 20.954,177.936 22.295 C 171.625 27.929,168.034 31.137,165.606 33.310 L 163.028 35.619 163.028 62.790 L 163.028 89.962 200.000 89.962 L 236.972 89.962 236.972 62.841 L 236.972 35.721 236.259 35.030 C 235.867 34.650,234.756 33.638,233.790 32.781 C 230.751 30.082,221.385 21.732,220.549 20.975 C 218.730 19.329,213.062 14.261,208.108 9.851 C 203.329 5.597,200.699 3.241,200.368 2.917 C 200.209 2.761,200.041 2.633,199.995 2.633 C 199.949 2.633,197.955 4.386,195.565 6.528 M201.519 19.790 C 202.252 20.417,203.011 21.083,203.204 21.271 C 203.852 21.900,205.463 23.350,208.338 25.891 C 209.907 27.278,211.585 28.769,212.068 29.204 C 213.107 30.141,217.502 34.079,218.400 34.878 C 218.745 35.185,219.246 35.634,219.512 35.875 C 219.779 36.116,221.150 37.346,222.560 38.608 L 225.123 40.902 225.123 59.508 L 225.123 78.113 200.000 78.113 L 174.877 78.113 174.877 59.480 L 174.877 40.848 178.771 37.375 C 180.913 35.465,182.715 33.850,182.776 33.786 C 182.836 33.721,183.823 32.838,184.970 31.824 C 186.116 30.809,187.104 29.923,187.164 29.855 C 187.224 29.787,188.113 28.991,189.139 28.086 C 190.165 27.180,191.053 26.391,191.114 26.330 C 191.266 26.178,193.080 24.553,195.279 22.600 C 196.298 21.695,197.702 20.436,198.399 19.803 C 199.951 18.393,199.884 18.393,201.519 19.790 M196.769 43.880 C 185.357 47.465,187.427 64.270,199.357 64.888 C 212.275 65.556,215.235 47.771,202.868 43.793 C 201.412 43.324,198.400 43.367,196.769 43.880 M88.097 118.284 C 76.598 119.456,69.262 127.395,67.942 140.099 C 67.297 146.307,70.789 154.372,76.030 158.776 C 85.723 166.922,102.100 165.040,108.956 154.992 C 109.833 153.708,110.224 154.106,105.205 151.176 C 100.861 148.640,101.174 148.722,100.359 149.900 C 95.258 157.272,81.704 154.856,78.701 146.039 C 74.875 134.806,84.415 124.818,95.337 128.620 C 97.506 129.375,100.933 132.052,100.933 132.991 C 100.933 133.328,108.888 129.004,109.685 128.235 C 109.830 128.095,107.988 125.770,106.777 124.565 C 103.074 120.881,98.536 118.788,93.142 118.276 C 90.510 118.027,90.628 118.027,88.097 118.284 M114.756 140.975 L 114.756 163.028 128.470 163.028 L 142.183 163.028 142.183 158.313 L 142.183 153.598 133.461 153.541 L 124.739 153.483 124.739 149.534 L 124.739 145.584 132.474 145.527 L 140.208 145.469 140.208 140.754 L 140.208 136.039 132.419 136.039 L 124.630 136.039 124.630 132.312 L 124.630 128.584 133.242 128.527 L 141.854 128.470 141.854 123.752 L 141.854 119.035 128.305 118.978 L 114.756 118.922 114.756 140.975 M148.108 140.976 L 148.108 163.028 153.044 163.028 L 157.981 163.028 157.981 151.302 C 157.981 144.853,158.063 139.526,158.162 139.464 C 158.262 139.403,158.829 140.041,159.424 140.882 C 160.018 141.722,161.788 144.215,163.357 146.421 C 166.677 151.088,166.330 150.600,171.293 157.597 L 175.144 163.028 178.960 163.028 L 182.776 163.028 182.776 140.972 L 182.776 118.917 177.784 118.976 L 172.792 119.035 172.682 130.773 C 172.610 138.486,172.497 142.476,172.353 142.407 C 172.233 142.349,170.908 140.572,169.410 138.458 C 167.912 136.343,166.371 134.169,165.987 133.626 C 165.315 132.678,162.750 129.081,157.811 122.161 L 155.500 118.925 151.804 118.925 L 148.108 118.925 148.108 140.976 M187.262 119.205 C 187.203 119.359,187.181 121.507,187.214 123.977 L 187.274 128.470 192.869 128.579 L 198.464 128.689 198.520 145.858 L 198.576 163.028 203.622 163.028 L 208.667 163.028 208.667 145.804 L 208.667 128.579 214.262 128.579 L 219.857 128.579 219.857 123.752 L 219.857 118.925 203.614 118.925 C 190.638 118.925,187.348 118.981,187.262 119.205 M224.465 140.955 L 224.465 163.028 229.399 163.028 L 234.333 163.028 234.391 155.842 L 234.449 148.656 236.878 148.594 L 239.308 148.533 241.632 152.544 C 242.910 154.750,244.285 157.151,244.688 157.880 C 245.090 158.608,245.913 160.064,246.517 161.115 L 247.614 163.025 252.958 163.027 C 257.272 163.028,258.281 162.973,258.192 162.741 C 258.132 162.583,256.412 159.596,254.370 156.103 C 252.329 152.611,250.590 149.605,250.506 149.424 C 250.422 149.243,250.112 148.700,249.816 148.217 C 249.083 147.021,249.100 146.960,250.411 146.080 C 260.996 138.979,258.704 123.695,246.444 119.625 L 244.761 119.066 234.613 118.974 L 224.465 118.881 224.465 140.955 M274.429 119.306 C 274.133 120.295,270.717 130.276,270.542 130.664 C 270.433 130.905,270.249 131.448,270.133 131.871 C 270.017 132.293,269.070 135.107,268.029 138.124 C 266.988 141.141,265.502 145.485,264.728 147.778 C 263.953 150.071,262.612 154.021,261.747 156.555 C 260.882 159.089,260.043 161.583,259.883 162.095 L 259.593 163.028 265.028 163.028 L 270.463 163.028 270.969 161.437 C 271.248 160.562,271.742 159.057,272.068 158.091 L 272.661 156.336 280.949 156.336 L 289.236 156.336 290.107 159.078 C 290.586 160.587,291.082 162.093,291.209 162.425 L 291.441 163.028 296.790 163.028 C 300.270 163.028,302.139 162.950,302.139 162.805 C 302.139 162.559,301.661 161.127,297.747 149.643 C 296.286 145.359,294.657 140.570,294.126 139.002 C 292.847 135.226,288.770 123.257,287.959 120.900 L 287.318 119.035 280.932 118.976 C 274.990 118.922,274.537 118.945,274.429 119.306 M306.308 140.976 L 306.308 163.028 319.144 163.028 L 331.980 163.028 331.980 158.313 L 331.980 153.599 324.136 153.541 L 316.292 153.483 316.236 136.204 L 316.179 118.925 311.244 118.925 L 306.308 118.925 306.308 140.976 M244.323 128.969 C 247.979 130.964,248.151 136.711,244.625 139.046 L 243.697 139.660 239.073 139.660 L 234.449 139.660 234.390 134.288 C 234.357 131.334,234.379 128.791,234.438 128.638 C 234.683 127.999,243.058 128.279,244.323 128.969 M281.602 132.366 C 281.831 133.119,282.288 134.575,282.618 135.601 C 282.948 136.626,283.638 138.799,284.152 140.428 C 284.666 142.057,285.308 144.081,285.579 144.926 C 285.850 145.771,286.027 146.536,285.974 146.626 C 285.828 146.874,276.078 146.829,275.924 146.581 C 275.796 146.374,275.927 145.895,277.128 142.183 C 277.460 141.157,278.296 138.541,278.985 136.369 C 280.682 131.023,280.693 130.993,280.955 130.995 C 281.081 130.996,281.372 131.613,281.602 132.366 M149.424 172.664 C 126.932 176.661,123.241 207.316,144.158 216.403 C 161.224 223.818,179.815 208.556,175.764 190.455 C 173.027 178.224,161.593 170.501,149.424 172.664 M191.772 172.658 C 184.100 174.205,179.676 179.659,180.227 186.893 C 180.727 193.465,184.332 196.620,194.844 199.687 C 196.594 200.198,198.173 200.693,198.354 200.788 C 198.535 200.882,199.165 201.187,199.754 201.465 C 202.962 202.981,203.223 206.263,200.262 207.846 C 198.642 208.712,193.690 208.581,191.747 207.621 C 190.088 206.802,188.142 204.905,187.480 203.462 C 186.958 202.326,187.097 202.325,185.153 203.474 C 183.342 204.543,181.914 205.353,180.143 206.314 C 178.152 207.394,178.166 207.359,179.030 209.058 C 185.406 221.590,207.895 221.410,211.782 208.795 C 214.250 200.789,210.213 194.819,200.219 191.692 C 191.916 189.095,190.236 188.050,190.236 185.484 C 190.236 180.433,199.413 181.094,202.190 186.345 C 202.429 186.797,202.687 187.142,202.762 187.111 C 202.838 187.080,204.694 186.018,206.885 184.750 C 211.421 182.128,211.342 182.247,209.925 180.187 C 205.698 174.043,198.896 171.221,191.772 172.658 M90.400 195.278 L 90.400 217.444 95.445 217.444 L 100.489 217.444 100.546 208.612 L 100.603 199.781 107.390 199.722 C 112.674 199.677,114.216 199.726,114.354 199.942 C 114.450 200.095,114.531 204.095,114.533 208.832 L 114.536 217.444 119.583 217.444 L 124.630 217.444 124.630 195.416 C 124.630 175.531,124.596 173.375,124.283 173.254 C 124.092 173.181,121.821 173.121,119.236 173.121 L 114.536 173.121 114.536 181.569 L 114.536 190.016 107.518 190.016 L 100.499 190.016 100.441 181.624 L 100.384 173.231 95.392 173.172 L 90.400 173.113 90.400 195.278 M212.836 177.948 L 212.836 182.776 218.408 182.776 C 223.286 182.776,223.996 182.819,224.113 183.123 C 224.186 183.314,224.246 191.114,224.246 200.457 L 224.246 217.444 229.183 217.444 L 234.120 217.444 234.120 200.457 C 234.120 191.114,234.180 183.314,234.253 183.123 C 234.369 182.819,235.079 182.776,239.958 182.776 L 245.529 182.776 245.529 177.948 L 245.529 173.121 229.183 173.121 L 212.836 173.121 212.836 177.948 M250.137 195.281 L 250.137 217.444 263.961 217.444 L 277.784 217.444 277.784 212.617 L 277.784 207.789 269.002 207.789 L 260.220 207.789 260.280 203.785 L 260.340 199.781 268.184 199.723 L 276.029 199.665 276.029 195.063 L 276.029 190.461 268.184 190.403 L 260.340 190.346 260.280 186.561 L 260.220 182.776 268.897 182.776 L 277.573 182.776 277.514 178.003 L 277.455 173.231 263.796 173.174 L 250.137 173.118 250.137 195.281 M283.859 173.263 C 283.776 173.346,283.708 183.321,283.708 195.429 L 283.708 217.444 296.658 217.444 L 309.608 217.444 309.549 212.671 L 309.490 207.899 301.647 207.841 L 293.804 207.784 293.748 190.507 L 293.692 173.231 288.850 173.172 C 286.188 173.140,283.941 173.181,283.859 173.263 M156.911 182.549 C 168.993 185.897,169.583 203.406,157.762 207.807 C 154.060 209.185,148.469 208.344,145.378 205.944 C 133.996 197.106,143.064 178.712,156.911 182.549 "
          stroke="none" fill="#fafafa" fill-rule="evenodd"></path>
  </g>
</svg>
